src/assets/services/art_3.svg

<svg width="166" height="166" viewBox="0 0 166 166" fill="none" xmlns="http://www.w3.org/2000/svg">
<circle cx="83" cy="83" r="83" fill="url(#paint0_linear_382_232)"/>
<path d="M43.8183 93.2554C44.412 93.479 45.0829 93.1937 45.3296 92.6077L55.7624 67.7325L52.0535 66.3292L43.1243 91.7518C42.9084 92.361 43.2169 93.0241 43.8183 93.2554Z" fill="#364154"/>
<path d="M55.7547 58.7494L58.0448 59.6207L55.7624 67.7325L52.0535 66.3291L55.7547 58.7494Z" fill="#131F2D"/>
<path d="M57.0501 52.1798L61.5687 53.8916C62.4554 54.2231 62.6713 55.3721 61.9774 56.0121L61.5224 56.7292C60.7976 57.8627 59.7798 58.7725 58.5769 59.3663L58.0526 59.6207L55.7624 58.7494L55.6313 58.4178C55.1301 57.1841 54.9759 55.827 55.1764 54.5084L55.3383 53.4598C55.2612 52.5345 56.1788 51.8482 57.0501 52.1798Z" fill="#131F2D"/>
<path d="M25.5513 113.867H51.5446C52.1923 113.867 52.7244 113.342 52.7244 112.687V97.3576C52.7244 96.7099 52.2 96.1779 51.5446 96.1779H25.5513C24.9036 96.1779 24.3716 96.7022 24.3716 97.3576V112.687C24.3793 113.342 24.9036 113.867 25.5513 113.867Z" fill="#9DA8ED"/>
<path d="M24.3731 109.34H52.7181V103.349H24.3731V109.34Z" fill="#4754C7"/>
<path d="M24.3731 101.135H52.7181V100.124H24.3731V101.135Z" fill="#4754C7"/>
<path d="M102.683 108.13L114.558 103.133L103.732 67.4164L84.7166 75.4125L102.683 108.13Z" fill="#FF64AE"/>
<path d="M103.446 93.3325C106.839 91.906 108.435 87.9966 107.009 84.5961C105.582 81.2034 101.673 79.6072 98.2723 81.0337C94.8795 82.4602 93.2834 86.3696 94.7099 89.7701C96.1364 93.1629 100.053 94.759 103.446 93.3325Z" fill="#C63CC0"/>
<path d="M88.2794 79.2114L104.05 72.576L103.712 71.7729L87.9415 78.4083L88.2794 79.2114Z" fill="#A0462D"/>
<path d="M107.448 117.097L117.696 112.787C118.128 112.602 118.336 112.101 118.151 111.669L114.558 103.133L102.737 108.106L106.33 116.642C106.515 117.074 107.016 117.282 107.448 117.097Z" fill="#C63CC0"/>
<path d="M68.439 104.914L83.2593 105.022C84.146 105.03 84.8863 104.351 84.9634 103.465L88.4024 61.2014L64.0284 60.9932L66.7581 103.326C66.8121 104.22 67.5446 104.914 68.439 104.914Z" fill="#FFA9D6"/>
<path d="M75.9802 94.2269C80.3369 94.2655 83.8916 90.7648 83.9301 86.4081C83.9687 82.0515 80.468 78.4968 76.1113 78.4583C71.7547 78.4197 68.2 81.9204 68.1614 86.2771C68.1229 90.6337 71.6236 94.1961 75.9802 94.2269Z" fill="#FFD2EC"/>
<path d="M66.1041 66.7797L86.3297 66.9493L86.3383 65.9238L66.1127 65.7542L66.1041 66.7797Z" fill="#131F2D"/>
<path d="M66.0694 75.3221L86.295 75.4918L86.3369 70.4951L66.1114 70.3254L66.0694 75.3221Z" fill="#FFD2EC"/>
<path d="M69.2179 116.874L82.3572 116.982C82.9124 116.989 83.3673 116.534 83.375 115.979L83.4675 105.03L68.308 104.906L68.2155 115.856C68.2078 116.411 68.655 116.866 69.2179 116.874Z" fill="#FFD2EC"/>
<path d="M121.968 117.051H137.628V58.1788C137.628 57.6005 137.158 57.1378 136.588 57.1378H123.016C122.438 57.1378 121.975 57.6082 121.975 58.1788V117.051H121.968Z" fill="#B2CBFD"/>
<path d="M127.404 57.7701H132.763C132.994 57.7701 133.172 57.5851 133.172 57.3614V49.3807C133.172 49.1494 132.987 48.972 132.763 48.972H127.404C127.173 48.972 126.995 49.1571 126.995 49.3807V57.3537C126.988 57.5851 127.173 57.7701 127.404 57.7701Z" fill="#1A51AA"/>
<path d="M121.965 108.398H133.755V74.5396H121.965V108.398Z" fill="#1A51AA"/>
<defs>
<linearGradient id="paint0_linear_382_232" x1="83" y1="0" x2="83" y2="166" gradientUnits="userSpaceOnUse">
<stop stop-color="#EEEFFF"/>
<stop offset="1" stop-color="white" stop-opacity="0"/>
</linearGradient>
</defs>
</svg>

<svg width="166" height="166" fill="none" xmlns="http://www.w3.org/2000/svg">
	<circle cx="83" cy="83" r="83" fill="url(#a)"/>
	<path d="M43.818 93.255a1.188 1.188 0 0 0 1.512-.647l10.432-24.876-3.709-1.403-8.929 25.423c-.216.609.093 1.272.694 1.503Z" fill="#364154"/>
	<path d="m55.755 58.75 2.29.87-2.283 8.113-3.709-1.404 3.702-7.58ZM57.05 52.18l4.519 1.712c.886.331 1.102 1.48.408 2.12l-.455.717a7.361 7.361 0 0 1-2.945 2.637l-.524.255-2.29-.872-.132-.331a7.438 7.438 0 0 1-.455-3.91l.162-1.048a1.262 1.262 0 0 1 1.712-1.28Z" fill="#131F2D"/>
	<path d="M25.551 113.867h25.994a1.18 1.18 0 0 0 1.18-1.18v-15.33a1.18 1.18 0 0 0-1.18-1.18H25.55a1.18 1.18 0 0 0-1.18 1.18v15.33c.008.655.533 1.18 1.18 1.18Z" fill="#9DA8ED"/>
	<path d="M24.373 109.34h28.345v-5.991H24.373v5.991ZM24.373 101.135h28.345v-1.011H24.373v1.011Z" fill="#4754C7"/>
	<path d="m102.683 108.13 11.875-4.997-10.826-35.717-19.015 7.996 17.966 32.718Z" fill="#FF64AE"/>
	<path d="M103.446 93.332a6.674 6.674 0 0 0 3.563-8.736 6.674 6.674 0 0 0-8.737-3.562 6.674 6.674 0 0 0-3.562 8.736 6.676 6.676 0 0 0 8.736 3.563Z" fill="#C63CC0"/>
	<path d="m88.28 79.211 15.77-6.635-.338-.803-15.77 6.635.337.803Z" fill="#A0462D"/>
	<path d="m107.448 117.097 10.248-4.31a.855.855 0 0 0 .455-1.118l-3.593-8.536-11.821 4.973 3.593 8.536a.855.855 0 0 0 1.118.455Z" fill="#C63CC0"/>
	<path d="m68.439 104.914 14.82.108a1.699 1.699 0 0 0 1.704-1.557l3.44-42.264-24.375-.208 2.73 42.333a1.683 1.683 0 0 0 1.681 1.588Z" fill="#FFA9D6"/>
	<path d="M75.98 94.227c4.357.038 7.912-3.462 7.95-7.819.039-4.356-3.462-7.911-7.819-7.95-4.356-.038-7.911 3.462-7.95 7.82-.038 4.356 3.463 7.918 7.82 7.949Z" fill="#FFD2EC"/>
	<path d="m66.104 66.78 20.226.17.008-1.026-20.225-.17-.009 1.026Z" fill="#131F2D"/>
	<path d="m66.07 75.322 20.225.17.042-4.997-20.226-.17-.042 4.997ZM69.218 116.874l13.14.108a1.015 1.015 0 0 0 1.017-1.003l.093-10.949-15.16-.124-.093 10.95c-.007.555.44 1.01 1.003 1.018Z" fill="#FFD2EC"/>
	<path d="M121.968 117.051h15.66V58.179c0-.579-.47-1.041-1.04-1.041h-13.572c-.578 0-1.041.47-1.041 1.04v58.873h-.007Z" fill="#B2CBFD"/>
	<path d="M127.404 57.77h5.359a.407.407 0 0 0 .409-.409v-7.98a.406.406 0 0 0-.409-.409h-5.359a.407.407 0 0 0-.409.409v7.973a.404.404 0 0 0 .409.416ZM121.965 108.398h11.79V74.54h-11.79v33.858Z" fill="#1A51AA"/>
	<defs>
		<linearGradient id="a" x1="83" y1="0" x2="83" y2="166" gradientUnits="userSpaceOnUse">
			<stop stop-color="#EEEFFF"/>
			<stop offset="1" stop-color="#fff" stop-opacity="0"/>
		</linearGradient>
	</defs>
</svg>
